static/assets/img/icons/theme/home/fireplace.svg

<svg height="24" viewBox="0 0 24 24" width="24" xmlns="http://www.w3.org/2000/svg"><g fill="none" fill-rule="evenodd"><path d="m0 0h24v24h-24z" opacity="0"/><g fill="#000"><path d="m17 20v-8c0-2.76142375-2.2385763-5-5-5-2.76142375 0-5 2.23857625-5 5v8h-2c-1.1045695 0-2-.8954305-2-2v-12c0-1.1045695.8954305-2 2-2h14c1.1045695 0 2 .8954305 2 2v12c0 1.1045695-.8954305 2-2 2z" opacity=".3"/><path d="m12.9717525 11.7005668c-.1619588 1.6195874-.647835 2.48612-1.4576287 2.5995978 0 0 .7288143-2.8425359-.2429381-4.3001646 0 0-.1030456 1.5618236-1.1442447 3.4359819-.48806125.8785102-1.04219839 1.4707263-1.04219839 2.637471 0 1.6659185 1.70612479 2.5268763 2.91803639 2.5268763s2.9124784-.5830715 2.9124784-2.6238217c0-.8391447-.647835-2.2644582-1.9435049-4.2759407z"/></g></g></svg>

<svg width="24px" height="24px" viewBox="0 0 24 24" version="1.1" xmlns="http://www.w3.org/2000/svg" xmlns:xlink="http://www.w3.org/1999/xlink">
    <title>Icon For Fireplace</title>
    <g stroke="none" stroke-width="1" fill="none" fill-rule="evenodd">
        <rect opacity="0" x="0" y="0" width="24" height="24"></rect>
        <path d="M17,20 L17,12 C17,9.23857625 14.7614237,7 12,7 C9.23857625,7 7,9.23857625 7,12 L7,20 L5,20 C3.8954305,20 3,19.1045695 3,18 L3,6 C3,4.8954305 3.8954305,4 5,4 L19,4 C20.1045695,4 21,4.8954305 21,6 L21,18 C21,19.1045695 20.1045695,20 19,20 L17,20 Z" fill="#000000" opacity="0.3"></path>
        <path d="M12.9717525,11.7005668 C12.8097937,13.3201542 12.3239175,14.1866868 11.5141238,14.3001646 C11.5141238,14.3001646 12.2429381,11.4576287 11.2711857,10 C11.2711857,10 11.1681401,11.5618236 10.126941,13.4359819 C9.63887975,14.3144921 9.08474261,14.9067082 9.08474261,16.0734529 C9.08474261,17.7393714 10.7908674,18.6003292 12.002779,18.6003292 C13.2146906,18.6003292 14.9152574,18.0172577 14.9152574,15.9765075 C14.9152574,15.1373628 14.2674224,13.7120493 12.9717525,11.7005668 Z" fill="#000000"></path>
    </g>
</svg>
